!!!!SEGMENT: pl-kk--kk-i-10--022-002_anonim--missa-alia-paschalis-et-in-terra.krn
!!!cenid: 16xx:1223
!!!COM: Anonim
!!!COM-rismid: pe30004985
!!!CDT:
!!!CNT:
!!!OTL: Missa alia Paschalis – Et in terra
!!!PDT:
!!!AGN: Sacred; Mass
!!!SMS-siglum: PL-Kk
!!!SMS-shelfmark: Kk.I.10
!!!SMS-shelfwork: 022-002 M
!!!SMS-variant:
!!!SMS-altvar:
!!!NIFC-rismid: 1001154103
!!!system-decoration: [(s1,s2,s3)]
**kern	**text	**kern	**text	**kern	**text
*part3	*part3	*part2	*part2	*part1	*part1
*staff3	*staff3	*staff2	*staff2	*staff1	*staff1
*I"Bassus.	*	*I"Tenor	*	*I"altuſ.	*
*I'B	*	*I'T	*	*I'A	*
*clefF4	*	*clefC4	*	*clefC3	*
*k[b-]	*	*k[b-]	*	*k[b-]	*
*M3/1	*	*M3/1	*	*M3/1	*
=1-	=1-	=1-	=1-	=1-	=1-
!LO:TX:t=P:problem:w źródle inicjał E na początku pięciolinii	!	!	!	!	!
!	!	!LO:TX:t=P:problem:w źródle inicjał E na początku pięciolinii	!	!LO:TX:t=P:problem:w źródle inicjał E na początku pięciolinii	!
1.G	Et	1.B-	Et	1.d	Et
2F\	in	2A/	in	2f\	in
2F\	ter-	2A/	ter-	2f\	ter-
2F\	-ra	2A/	-ra	2f\	-ra
=2-	=2-	=2-	=2-	=2-	=2-
1G	pax	1G	pax	1d	pax
2r	.	2r	.	2r	.
2D/	in	2A/	in	2f\	in
2D/	ter-	2A/	ter-	2f\	ter-
!	!	!LO:SIC:v:t=custos G	!	!	!
2D/	-ra	2A/	-ra	2f\	-ra
!	!	!LO:LB:g=original	!	!	!
=3-	=3-	=3-	=3-	=3-	=3-
1E-X	pax	1G	pax	1e-X	pax
2r	.	2r	.	2r	.
*	*ij	*	*ij	*	*ij
2BB-/	in	2d\	in	2d\	in
2BB-/	ter-	2d\	ter-	2d\	ter-
2BB-/	-ra	2d\	-ra	2d\	-ra
=4-	=4-	=4-	=4-	=4-	=4-
1C	pax	0c	pax	0e-	pax
*	*Xij	*	*	*	*
2r	.	.	.	.	.
*col	*	*	*	*	*
2C/	pax	.	.	.	.
*Xcol	*	*	*	*	*
*	*	*	*Xij	*	*Xij
1GG	ho-	1B-	ho-	1g	ho-
=5-	=5-	=5-	=5-	=5-	=5-
1.D	-mi-	1.A	-mi-	1.f	-mi-
2D/	-ni-	2A/	-ni-	2f\	-ni-
1D	-b(us)	1A	-b(us)	1f	-b(us)
=6-	=6-	=6-	=6-	=6-	=6-
1.BB-	bo-	1.B-	bo-	1.f	bo-
2BB-/	-nae	2B-/	-nae	2f\	-nae
1C	Vo-	1G	vo-	1eny	Vo-
=7-	=7-	=7-	=7-	=7-	=7-
1GG	-lun-	1B-	-lun-	1g	-lun-
*	*	*	*	*lig	*
0D	-ta-	0c	-ta-	1g	-ta-
!	!	!	!	!LO:TX:t=P:problem:♯ above	!
.	.	.	.	1f#Xi	.
*	*	*	*	*Xlig	*
!LO:LB:g=original	!	!	!	!LO:LB:g=original	!
=8-	=8-	=8-	=8-	=8-	=8-
0GG	-tiſ	0B-	-tiſ	0.g	-tiſ
1GG	lau-	1G	lau-	.	.
=9-	=9-	=9-	=9-	=9-	=9-
!	!	!	!	!LO:N:vis=00	!
0D	-da-	2F/	-da-	00.r	.
.	.	2E/	.	.	.
.	.	2F/	.	.	.
.	.	2D/	.	.	.
1C	-m(us)	2E/	.	.	.
.	.	2F/	.	.	.
=10-	=10-	=10-	=10-	=10-	=10-
2BB-/	lau-	1G	.	.	.
2AA/	.	.	.	.	.
2BB-/	.	1G	m(us)	.	.
2GG/	.	.	.	.	.
!	!	!LO:SIC:v:t=custos A	!	!	!
2AA/	.	1A	lau-	.	.
2BB-/	.	.	.	.	.
!	!	!LO:PB:g=original	!	!	!
=11-	=11-	=11-	=11-	=11-	=11-
!	!	!	!	!LO:N:vis=00	!
0F	-da-	2A/	-da-	00.r	.
.	.	2G/	.	.	.
.	.	2A/	.	.	.
.	.	2F/	.	.	.
1F	-m(us)	2G/	.	.	.
.	.	2A/	.	.	.
=12-	=12-	=12-	=12-	=12-	=12-
*	*ij	*	*	*	*
2BB-/	lau-	1B-	.	.	.
2AA/	.	.	.	.	.
2BB-/	.	1B-	-m(us)	.	.
2GG/	.	.	.	.	.
2AA/	.	1B-	lau-	.	.
2BB-/	.	.	.	.	.
=13-	=13-	=13-	=13-	=13-	=13-
!	!	!	!	!LO:N:vis=00	!
0FF	-da-	0A	-da-	00.r	.
1GG	-mus	1G	-m(us)	.	.
*	*Xij	*	*	*	*
=14-	=14-	=14-	=14-	=14-	=14-
0GG	te	0G	te	.	.
*	*	*	*ij	*	*
1C	lau-	1G	lau-	.	.
=15-	=15-	=15-	=15-	=15-	=15-
!	!	!	!	!LO:N:vis=0	!
0D	-da-	0G	-da-	1%3r	.
1D	-m(us)	1F#X	-mus	.	.
=16-	=16-	=16-	=16-	=16-	=16-
1GG	te	1G	te	1r	.
*	*	*	*Xij	*	*
1G	be-	1B-	be-	1d	be-
!LO:SIC:v:t=custos E	!	!	!	!	!
1G	-ne-	1B-	-ne-	1d	-ne-
!LO:PB:g=original	!	!	!	!	!
=17-	=17-	=17-	=17-	=17-	=17-
!LO:SIC:v:s=1.E-	!	!	!	!	!
1.Eny	-di-	1.B-	-di-	1.g	-di-
2D/	-ci-	2B-\	-ci-	2fny\	-ci-
1C	-m(us)	1c	-m(us)	1e-X	-m(us)
=18-	=18-	=18-	=18-	=18-	=18-
1E-X	te	1c	te	1e-	te
*	*	*	*ij	*	*ij
1E-	a-	1c	be-	1e-	be-
1F	-do-	1c	-ne-	1d	-ne-
=19-	=19-	=19-	=19-	=19-	=19-
0G	-ra-	1.c	-di-	1.d	-di-
.	.	2c\	-ci-	2d\	-ci-
1G	-m(us)	1B-	-mus	1d	-mus
!	!	!LO:LB:g=original	!	!	!
=20-	=20-	=20-	=20-	=20-	=20-
0C	te	1c	te	1c	te
*	*	*	*Xij	*	*Xij
.	.	1c	a-	1e-	a-
1C	glo-	1c	-do-	1e-	-do-
=21-	=21-	=21-	=21-	=21-	=21-
0GG	-ri-	1.B-	-r-	1.d	-ra-
.	.	2A/	-am(us)	2c/	-m(us)
1GG	-fi-	1G	te	1B-	te
=22-	=22-	=22-	=22-	=22-	=22-
0D	-ca-	1F#X	glo-	1A	glo-
.	.	1F#	-ri-	1A	-ri-
1GG	-m(us)	1G	-fi-	1B-	-di-
=23-	=23-	=23-	=23-	=23-	=23-
0.D	te	0G	-ca-	0A	-ca-
.	.	1F#	-m(us)	1A	-m(us)
=24-	=24-	=24-	=24-	=24-	=24-
1.GG	gra-	0.G	te	0.B-	te
2GG/	-ti-	.	.	.	.
1GG	-aſ	.	.	.	.
=25-	=25-	=25-	=25-	=25-	=25-
*	*ij	*	*	*	*
1.D	gra-	1.A	gra-	1.f	gra-
2D/	-ti-	2A/	-ti-	2f\	-ti-
1D	-aſ	1A	-aſ	1f	-[as]
*	*Xij	*	*	*	*
!	!	!	!	!LO:LB:g=original	!
=26-	=26-	=26-	=26-	=26-	=26-
1F	a-	1A	a-	1a	a-
1F	-gi-	1A	-gi-	1a	-gi-
1G	-m(us)	1G	-m(us)	1g	-m(us)
=27-	=27-	=27-	=27-	=27-	=27-
0.A	ti-	1E	ti-	0.eny	ti-
.	.	0A	.	.	.
=28-	=28-	=28-	=28-	=28-	=28-
1D	-bi	1A	-bi	1d	-bi
1BB-	p(ro)-	1A	pro-	1f	pro-
1BB-	-p(te)r	1d	-p(te)r	1f	-pter
!LO:LB:g=original	!	!	!	!	!
=29-	=29-	=29-	=29-	=29-	=29-
0BB-	ma-	0d	Ma-	0f	Ma-
!	!	!LO:TX:a:t=P:w źródle brakujący fragment:problem	!	!	!
1FF	-gna(m)	1dyy	-(gnam)	1f	-gna(m)
!	!	!LO:LB:g=original	!	!	!
=30-	=30-	=30-	=30-	=30-	=30-
1.BB-	gl(o-	1.d	glo-	1.f	gl(o-
2BB-/	-ri)-	2d\	-ri-	2f\	-ri)-
1BB-	-a(m)	1d	-a(m)	1f	-a(m)
=31-	=31-	=31-	=31-	=31-	=31-
1r	.	1r	.	1r	.
*	*ij	*	*	*	*ij
1GG	pro-	1B-	p(ro)-	1g	pro-
1GG	-pter	1d	-pter	1g	-pter
=32-	=32-	=32-	=32-	=32-	=32-
0G	ma-	0d	ma-	0g	ma-
1D	-gnam	1d	-gna(m)	1f	-gnam
=33-	=33-	=33-	=33-	=33-	=33-
1.G	glo-	1.d	glo-	1.d	glo-
2G\	-ri-	2d\	-ri-	2d\	-ri-
1GG	-am	1d	-a(m)	1d	-am
*	*Xij	*	*	*	*Xij
=34-	=34-	=34-	=34-	=34-	=34-
1BB-	tu-	1d	tu-	1d	tu-
1C	.	1c	.	1e-X	.
1D	.	1A	.	1d	.
=35-	=35-	=35-	=35-	=35-	=35-
0.GG	-am	0.B-	-am	0.d	-a(m)
=36-	=36-	=36-	=36-	=36-	=36-
!	!	!LO:N:vis=00	!	!	!
1.G	D(o-	00.r	.	1.d	do-
2G\	-mi)-	.	.	2d\	-mi-
1F	-ne	.	.	1d	-ne
=37-	=37-	=37-	=37-	=37-	=37-
1.E-X	De-	.	.	1.g	De-
2D/	-(us)	.	.	2f\	-(us)
!	!	!	!	!LO:TX:t=P:problem:♭ above	!
1E-	Rex	.	.	1e-Xi	Rex
!	!	!	!	!LO:LB:g=original	!
=38-	=38-	=38-	=38-	=38-	=38-
!	!	!LO:N:vis=00	!	!	!
1BB-	cae-	00.r	.	1d	Cae-
0F	-le-	.	.	0c	-le-
=39-	=39-	=39-	=39-	=39-	=39-
1BB-	-ſtis	.	.	1d	-ſtis
1B-	De-	.	.	1d	De-
1A	-(us)	.	.	1c	-(us)
!LO:LB:g=original	!	!	!	!	!
=40-	=40-	=40-	=40-	=40-	=40-
!	!	!LO:N:vis=00	!	!	!
1.G	Pa-	00.r	.	1d	P(a-
.	.	.	.	1d	-te)r
2G\	-ter	.	.	.	.
!LO:SIC:v:s=1F#	!	!	!	!	!
1F	om-	.	.	1f#X	o(m-
=41-	=41-	=41-	=41-	=41-	=41-
0A	-ni-	.	.	0eny	-n)i-
1A	-po-	.	.	1e	-po-
=42-	=42-	=42-	=42-	=42-	=42-
!	!	!LO:N:vis=00	!	!	!
1D	-tenſ	00.r	.	1d	-tens
*	*ij	*	*	*	*
1D	De-	.	.	1fny	De-
1C	-us	.	.	1e	-(us)
=43-	=43-	=43-	=43-	=43-	=43-
1BB-	Pa-	.	.	1d	Pa-
1BB-	-ter	.	.	1d	-ter
1AA	om-	.	.	1f	o(m-
=44-	=44-	=44-	=44-	=44-	=44-
!	!	!LO:N:vis=00	!	!	!
0C	-ni-	00.r	.	0f	-n)i-
1C	-po-	.	.	1e	-po-
=45-	=45-	=45-	=45-	=45-	=45-
0.F	-tenſ	.	.	0.f	-tens
*	*Xij	*	*	*	*
=46-	=46-	=46-	=46-	=46-	=46-
1.G	D(o-	1.G	Do-	1.B-	D(o-
2G\	-mi)-	2G/	-mi-	2B-/	-mi)-
1GG	-ne	1G	-ne	1B-	-ne
=47-	=47-	=47-	=47-	=47-	=47-
*	*ij	*	*ij	*	*
1.G	Do-	1.G	Do-	1.B-	D(o-
2G\	-mi-	2G/	-mi-	2B-/	-mi)-
1Eny	-ne	1A	-ne	1c	-ne
*	*Xij	*	*Xij	*	*
=48-	=48-	=48-	=48-	=48-	=48-
0D	Fi-	0B-	Fi-	0d	Fi-
1BB-	-li	1B-	-li	1d	-li
!	!	!	!	!LO:LB:g=original	!
=49-	=49-	=49-	=49-	=49-	=49-
1.GG	Fi-	1.B-	Fi-	1.d	Fi-
2GG/	-li	2c\	-li	2e\	-li
1FF	v-	1d	V-	1f	U-
!	!	!LO:LB:g=original	!	!	!
=50-	=50-	=50-	=50-	=50-	=50-
1GG	-ni-	1.c	-ni-	1e	-ni-
1.GG	-ge-	.	.	1.d	-ge-
.	.	1c	-ge-	.	.
!	!	!LO:N:acc=#	!	!	!
2GG/	-ni-	2Bn\	-ni-	2d\	-ni-
!LO:LB:g=original	!	!	!	!	!
=51-	=51-	=51-	=51-	=51-	=51-
*M2/1	*	*M2/1	*	*M2/1	*
*met(C|)	*	*met(C|)	*	*met(C|)	*
1C	-te	2c\	-te	2c/	-te
.	.	1c	Je-	1e-X	Je-
2C/	JE-	.	.	.	.
2BB-/	-ſU	2d\	-ſV	2d\	-ſV
=52-	=52-	=52-	=52-	=52-	=52-
!	!	!	!	!LO:TX:t=P:problem:♭ above	!
1E-X	Chri-	1G	X-	4e-Xi\	Chri-
.	.	.	.	4f\	.
.	.	.	.	1g	.
1D	.	1A	-(t)e	.	.
.	.	.	.	2f\	.
=53-	=53-	=53-	=53-	=53-	=53-
*	*	*	*ij	*	*
2GG/	-ſte	2B-y\	Je-	2g\	-ſte
*	*ij	*	*	*	*
1G	JE-	1d	.	1d	Je-
2F\	-ſV	2d\	-ſV	2d\	-ſu
=54-	=54-	=54-	=54-	=54-	=54-
!	!	!	!	!LO:TX:t=P:problem:♯ above	!
!	!	!	!	!LO:N:acc=#	!
!	!	!	!	!LO:N:vis=1	!
1B-X	Chri-	2B-\	X-	0eni	X-
.	.	4Fny/	.	.	.
.	.	4G/	.	.	.
1A	.	1A	.	.	.
=55-	=55-	=55-	=55-	=55-	=55-
!	!	!	!	!LO:TX:t=P:problem:♯ above	!
1D	-ſte	1A	-te	1f#Xi	-(t)e
*	*Xij	*	*Xij	*	*
=56-	=56-	=56-	=56-	=56-	=56-
*M3/1	*	*M3/1	*	*M3/1	*
!	!	!	!	!LO:TX:t=P:problem:w źródle błędne oznaczenie metryczne: 3/2	!
1.BB-	D(o-	1.F	D(o-	1.d	D(o-
2BB-/	-mi)-	2F/	-mi)-	2d\	-mi)-
1F	-ne	1F	-ne	1fny	-ne
=57-	=57-	=57-	=57-	=57-	=57-
0BB-	De-	0F	De-	0d	De-
1BB-	-(us)	1F	-(us)	1d	-(us)
=58-	=58-	=58-	=58-	=58-	=58-
*	*ij	*	*ij	*	*ij
1.GG	Do-	1.G	Do-	1.g	Do-
2GG/	-mi-	2G/	-mi-	2g\	-mi-
1D	-ne	1A	-ne	1f	-ne
!	!	!LO:LB:g=original	!	!	!
=59-	=59-	=59-	=59-	=59-	=59-
1.G	De-	1.B-	De-	1.g	De-
2G\	-us	2B-\	-us	2g\	-us
*	*Xij	*	*Xij	*	*Xij
!	!	!	!	!LO:LB:g=original	!
2D/	a-	2d\	a-	2f\	a-
2D/	-gn(us)	2d\	-gn(us)	2f\	-gn(us)
=60-	=60-	=60-	=60-	=60-	=60-
!	!	!	!	!LO:TX:t=P:problem:♭ above	!
0E-X	De-	0B-	De-	0e-Xi	De-
1C	-i	1c	-i	2d\	-i
.	.	.	.	2e-\	.
!LO:LB:g=original	!	!	!	!	!
=61-	=61-	=61-	=61-	=61-	=61-
1.D	Fi-	1.A	Fi-	1.f	Fi-
2D/	-li-	2A/	-li-	2f\	-li-
1GG	-(us)	1B-	-(us)	1g	-(us)
=62-	=62-	=62-	=62-	=62-	=62-
0.D	Pa-	0.d	Pa-	0g	Pa-
!	!	!	!	!LO:TX:t=P:problem:♯ above	!
.	.	.	.	1f#Xi	.
=63-	=63-	=63-	=63-	=63-	=63-
0.GG	-tris	0.d	-tris	0.g	-tris
=64-	=64-	=64-	=64-	=64-	=64-
*	*ij	*	*ij	*	*ij
1.G	Fi-	1.d	Fi-	1.g	Fi-
2G\	-li-	2d\	-li-	2g\	-li-
1F	-us	1d	-us	1a	-us
=65-	=65-	=65-	=65-	=65-	=65-
0.A	Pa-	0d	Pa-	0.eny	Pa-
!	!	!LO:TX:t=P:problem:♯ above	!	!	!
.	.	1c#Xi	.	.	.
=66-	=66-	=66-	=66-	=66-	=66-
0.D	-tris	0d	-tris	0fny	-tris
*	*	*	*Xij	*	*Xij
.	.	1F	qvi	1A	qvi
*	*Xij	*	*	*	*
=67-	=67-	=67-	=67-	=67-	=67-
!LO:N:vis=00	!	!	!	!	!
00.r	.	1G	tol-	1B-	tol-
.	.	1G	-liſ	1B-	-liſ
.	.	1G	pec-	1B-	pec-
=68-	=68-	=68-	=68-	=68-	=68-
.	.	0A	-ca-	0c	-ca-
.	.	1A	-ta	1c	-ta
=69-	=69-	=69-	=69-	=69-	=69-
!LO:N:vis=00	!	!	!	!	!
00.r	.	0B-	Mun-	0d	mun-
.	.	1B-	-di	1d	-di
!	!	!LO:LB:g=original	!	!	!
=70-	=70-	=70-	=70-	=70-	=70-
.	.	1.d	Mi-	1.f	mi-
.	.	2d\	-ſe-	2f\	-ſe-
!	!	!	!	!LO:TX:a:t=P:fragment źródła wytarty:problem	!
.	.	2d\	-re-	2fyy\	-[re-
.	.	2d\	-re	2fyy\	-re]
!	!	!	!	!LO:LB:g=original	!
=71-	=71-	=71-	=71-	=71-	=71-
*	*	*	*ij	*	*
!LO:N:vis=00	!	!	!	!	!
00.r	.	1.B-	Mi-	1.d	Mi-
.	.	2B-\	-ſe-	2d\	-ſe-
.	.	1A	-re-	1c	-re-
=72-	=72-	=72-	=72-	=72-	=72-
.	.	1G	-re	1B-	-re
*	*	*	*Xij	*	*
!	!	!LO:TX:t=P:problem:♯ above	!	!	!
.	.	0F#Xi	no-	0A	no-
=73-	=73-	=73-	=73-	=73-	=73-
1r	.	0G	-biſ	0B-	-biſ
1r	.	.	.	.	.
1G	Qui	1G	qui	1B-	qvi
=74-	=74-	=74-	=74-	=74-	=74-
*	*	*col	*	*	*
1D	tol-	1Fny	tol-	1A	tol-
1D	-liſ	1F	-lis	1A	-liſ
1GG	pec-	1G	pec-	1B-	pec-
*	*	*Xcol	*	*	*
=75-	=75-	=75-	=75-	=75-	=75-
0FF	-ca-	0A	-ca-	0c|<	-ca-
1FF	-ta	1A	-ta	1c	-ta
=76-	=76-	=76-	=76-	=76-	=76-
0BB-	Mun-	0B-	Mun-	0d	Mun-
1BB-	-di	1B-	-di	1d	-di
=77-	=77-	=77-	=77-	=77-	=77-
1.BB-	Su-	1.d	Su-	1.d	Su-
2BB-/	-ſci-	2d\	-ſci-	2d\	-ſci-
1BB-	-pe	1d	-pe	1d	-pe
=78-	=78-	=78-	=78-	=78-	=78-
*	*ij	*	*ij	*	*
1.F	Su-	1.cny	Su-	1.f	Su-
2F\	-ſci-	2c\	-ſci-	2f\	-ſci-
1F	-pe	1c	-pe	1f	-pe
*	*Xij	*	*Xij	*	*
=79-	=79-	=79-	=79-	=79-	=79-
*	*ij	*	*ij	*	*
!	!	!	!	!LO:TX:a:t=P:w źródle fragment tekstu niewidoczny, wytarty:problem	!
!	!	!	!	!LO:TX:t=P:problem:♭ above	!
1.C	Su-	1.c	Su-	1.e-Xi	[Su-
2C/	-ſci-	2c\	-ſci-	2e-\	-ſci-
1C	-pe	1c	-pe	1e-	-pe
*	*Xij	*	*Xij	*	*
!LO:LB:g=original	!	!LO:LB:g=original	!	!	!
=80-	=80-	=80-	=80-	=80-	=80-
*	*ij	*	*ij	*	*
1.G	Su-	1.d	Su-	1.g	Su-
2G\	-ſci-	2d\	-ſci-	2g\	-ſci-
1G	-pe	1d	-pe	1g	-pe
*	*Xij	*	*Xij	*	*
=81-	=81-	=81-	=81-	=81-	=81-
1.D	de-	1.d	de-	1.f	de-
2D/	-pre-	2d\	-pre-	2f\	-pre-
!	!	!	!	!LO:TX:a:t=P:fragment źródła wytarty:problem	!
2D/	-ca-	2d\	-ca-	2fyy\	-ca-
2D/	-ti-	2c\	-ti-	2fyy\	-ti]-
!	!	!	!	!LO:PB:g=original	!
=82-	=82-	=82-	=82-	=82-	=82-
0AA	-o-	0c	-o-	0eny	-o-
1AA	-ne(m)	1c	-ne(m)	1e	-nem
=83-	=83-	=83-	=83-	=83-	=83-
0.Eny	no-	0.B-	no-	0.e	no-
=84-	=84-	=84-	=84-	=84-	=84-
0AA	-ſtra(m)	0A	-stra(m)	0e	-ſtra(m)
1FF	qvi	1A	q(ui)	1f	qvi
=85-	=85-	=85-	=85-	=85-	=85-
1.C	se-	1G	se-	1e	Se-
.	.	1G	-des	1e	-deſ
2C/	-deſ	.	.	.	.
1BB-	ad	1B-	ad	1d	ad
=86-	=86-	=86-	=86-	=86-	=86-
1.C	dex-	1.G	dex-	1.e	dex-
2C/	-te-	2G/	-te-	2e\	-te-
2GG/	-ra(m)	2B-\	-ra(m)	2g\	-ram
*	*ij	*	*ij	*	*
2GG/	qvi	2B-\	qui	2g\	ad
=87-	=87-	=87-	=87-	=87-	=87-
1D	se-	1.A	se-	1.f	dex-
1D	-deſ	.	.	.	.
.	.	2A/	-des	2f\	-te-
1C	ad	1c	ad	2e\	-ram
*	*	*	*	*	*ij
.	.	.	.	2e\	ad
=88-	=88-	=88-	=88-	=88-	=88-
1.D	dex-	1A	dex-	1.f	dex-
.	.	1A	-te-	.	.
2D/	-te-	.	.	2f\	-te-
1AA	-ram	1c	-ram	1e	-ram
*	*Xij	*	*Xij	*	*Xij
=89-	=89-	=89-	=89-	=89-	=89-
1BB-	Pa-	1d	Pa-	1d	Pa-
0C	.	0c	.	0c	.
!LO:LB:g=original	!	!LO:LB:g=original	!	!	!
=90-	=90-	=90-	=90-	=90-	=90-
!	!	!LO:SIC:v:s=0.A	!	!LO:SIC:v:s=0.c	!
1FF	-tris	0.B-	-tris	0.d	-tris
1F	Mi-	.	.	.	.
1E	-ſe-	.	.	.	.
=91-	=91-	=91-	=91-	=91-	=91-
!	!	!LO:N:vis=00	!	!	!
0D	-re-	00.r	.	1r	.
.	.	.	.	1f	Mi-
1D	-re	.	.	1e	-ſe-
=92-	=92-	=92-	=92-	=92-	=92-
1r	.	.	.	0d	-re-
*	*ij	*	*	*	*
1G	Mi-	.	.	.	.
1F	-ſe-	.	.	1d	-re
!	!	!	!	!LO:LB:g=original	!
=93-	=93-	=93-	=93-	=93-	=93-
!	!	!LO:N:vis=00	!	!	!
0E	-re-	00.r	.	1r	.
*	*	*	*	*	*ij
.	.	.	.	1g	Mi-
1E	-re	.	.	1f	-ſe-
*	*Xij	*	*	*	*
=94-	=94-	=94-	=94-	=94-	=94-
1r	.	.	.	0e	-re-
*	*ij	*	*	*	*
1A	Mi-	.	.	.	.
1G	-ſe-	.	.	1e	-re
*	*	*	*	*	*Xij
=95-	=95-	=95-	=95-	=95-	=95-
*	*	*	*	*	*ij
!	!	!LO:N:vis=00	!	!	!
0F	-re-	00.r	.	1.a	Mi-
.	.	.	.	2a\	-ſe-
1G	re	.	.	2g\	-re-
.	.	.	.	2f\	-re
*	*Xij	*	*	*	*Xij
=96-	=96-	=96-	=96-	=96-	=96-
0.A	no-	.	.	0.e	no-
=97-	=97-	=97-	=97-	=97-	=97-
!	!	!LO:N:vis=0	!	!	!
1D	-bis	1%3r	.	0.d	-biſ
1.D	Mi-	.	.	.	.
2D/	-ſe-	.	.	.	.
=98-	=98-	=98-	=98-	=98-	=98-
0BB-	-re-	1r	.	1r	.
.	.	1B-	Mi-	1d	mi-
1BB-	-re	1A	-ſe-	1c	-ſe-
=99-	=99-	=99-	=99-	=99-	=99-
1r	.	0G	-re-	0B-	-re-
*	*ij	*	*	*	*
!LO:TX:a:t=P:problem:♭ above	!	!	!	!	!
1E-Xi	Mi-	.	.	.	.
1D	-ſe-	1G	-re	1B-	-re
=100-	=100-	=100-	=100-	=100-	=100-
*	*	*	*ij	*	*ij
0C	-re-	1.c	Mi-	1.e-X	mi-
.	.	2B-\	-ſe-	2d\	-ſe-
1C	-re	2A/	-re-	2c/	-re-
.	.	2G/	-re	2B-/	-re
*	*Xij	*	*Xij	*	*
=101-	=101-	=101-	=101-	=101-	=101-
0.D	no-	0G	no-	0.A	no-
!	!	!LO:TX:t=P:problem:♯ above	!	!	!
.	.	1F#Xi	.	.	.
=102-	=102-	=102-	=102-	=102-	=102-
0.GG	-bis	1G	-biſ	1B-	-biſ
*	*	*	*	*	*Xij
.	.	2d\	quo-	2g\	qvo-
.	.	2d\	-ni-	2g\	-ni-
.	.	1d	-a(m)	1g	-a(m)
!LO:PB:g=original	!	!	!	!	!
=103-	=103-	=103-	=103-	=103-	=103-
*	*	*	*ij	*	*ij
1.G	Quo-	1.d	quo-	1.g	qvo-
2G\	-nia(m)	2d\	-ni-	2g\	-ni-
1G	tu	1d	-am	1g	-a(m)
*	*	*	*Xij	*	*Xij
=104-	=104-	=104-	=104-	=104-	=104-
1G	So-	1G	tu	1g	tu
1E-X	-l(us)	1B-	so-	1g	So-
1C	S(an)-	1B-	-l(us)	1g	-l(us)
!	!	!	!	!LO:LB:g=original	!
=105-	=105-	=105-	=105-	=105-	=105-
1F	-ct(us)	1c	San-	1f	S(an)-
1F	tu	1c	-ct(us)	1f	-ct(us)
!	!	!LO:SIC:v:t=custos d	!	!	!
1F	so-	1c	Tu	1f	tu
!	!	!LO:PB:g=original	!	!	!
=106-	=106-	=106-	=106-	=106-	=106-
0D	-l(us)	0d	So-	0f	so-
1BB-	.	1d	-l(us)	1f	-l(us)
=107-	=107-	=107-	=107-	=107-	=107-
1.E-X	D(o-	1.B-	D(o-	1.e-X	D(o-
2E-\	-mi)-	2B-\	-mi)-	2e-\	-mi)-
1E-	-n(us)	1B-	-n(us)	1e-	-n(us)
=108-	=108-	=108-	=108-	=108-	=108-
1E-	tu	1B-	tu	1e-	tu
1C	so-	1c	So-	1e-	ſo-
1AA	-l(us)	1c	-l(us)	1e-	-l(us)
=109-	=109-	=109-	=109-	=109-	=109-
1D	S(an)-	1A	S(an)-	1d	S(an)-
1D	-ct(us)	1A	-ct(us)	1d	-t(us)
1D	tu	1A	tu	1d	tu
=110-	=110-	=110-	=110-	=110-	=110-
0BB-	so-	0B-	so-	0d	So-
1GG	-l(us)	1B-	-l(us)	1d	-l(us)
=111-	=111-	=111-	=111-	=111-	=111-
1.C	D(o-	1.c	D(o-	1.c	D(o-
2C/	-mi)-	2c\	-mi)-	2c/	-mi)-
!LO:TX:t=P:problem:w źródle kreska oddechu na różnych liniach [rozdzielacz słów]	!	!	!	!	!
1C,<	-n(us)	1c	-n(us)	1c	-n(us)
=112-	=112-	=112-	=112-	=112-	=112-
1C	tu	1G	tu	1g	tu
!LO:SIC:v:t=custos E	!	!	!	!	!
1D	so-	1Fny	so-	1f	So-
!LO:LB:g=original	!	!	!	!	!
2Eny\	-l(us)	2G/	-l(us)	2eny\	-l(us)
!LO:TX:t=P:problem:kreska pseudotaktowa	!	!	!	!	!
2E\	al-	2G/	alt-	2g\	al-
=113-	=113-	=113-	=113-	=113-	=113-
1.F	-tiſ-	1.A	-tiſ-	1.f	-tiſ-
2F\	-si-	2A/	-si-	2f\	-si-
1C	-m(us)	1G	-m(us)	1e	-m(us)
=114-	=114-	=114-	=114-	=114-	=114-
1.D	Je-	0.d	Je-	0.f	Jê-
2C/	.	.	.	.	.
1BB-	.	.	.	.	.
=115-	=115-	=115-	=115-	=115-	=115-
1GG	-ſu	1d	-ſu	0g	-ſu
0D	X-	0d	Chri-	.	.
!	!	!	!	!LO:TX:t=P:problem:♯ above	!
.	.	.	.	1f#Xi	Chri-
!	!	!LO:LB:g=original	!	!LO:LB:g=original	!
=116-	=116-	=116-	=116-	=116-	=116-
0GG	-(t)e	0d	-ſte	0g	-ste
1G	Cu(m)	1G	Cu(m)	1d	cu(m)
=117-	=117-	=117-	=117-	=117-	=117-
1D	S(an)-	1F#X	S(an)-	1d	S(an)-
1D	-cto	1F#	-cto	1d	-cto
*	*ij	*	*	*	*
1D	Cum	1F#	cu(m)	1d	cu(m)
=118-	=118-	=118-	=118-	=118-	=118-
0G	San-	0G	S(an)-	0d	S(an)-
1G	-cto	1G	-cto	1d	-cto
*	*Xij	*	*	*	*
=119-	=119-	=119-	=119-	=119-	=119-
1.F	Spi-	1.A	Spi-	1.fny	spi-
2F\	-ri-	2A/	-ri-	2f\	-ri-
2F\	-tu	2A/	-tu	2f\	-tu
2F\	in	2A/	in	2f\	in
=120-	=120-	=120-	=120-	=120-	=120-
1.BB-	glo-	1.B-	glo-	1.f	glo-
2BB-/	-ri-	2B-\	-ri-	2f\	-ri-
2BB-/	-a	2B-\	-a	2f\	-a
2BB-/	in	2B-\	in	2f\	in
=121-	=121-	=121-	=121-	=121-	=121-
1.BB-	glo-	1.d	glo-	1.f	gl(o-
2BB-/	-ri-	2d\	-ri-	2f\	-ri)-
1BB-	-a	1d	-a	1f	-a
!LO:LB:g=original	!	!	!	!	!
=122-	=122-	=122-	=122-	=122-	=122-
1.BB-	De-	1.B-	De-	1f	De-
.	.	.	.	1.f	-i
2BB-/	-i	2B-\	-i	.	.
1FF	Pa-	1A	Pa-	.	.
.	.	.	.	2f\	Pa-
=123-	=123-	=123-	=123-	=123-	=123-
1GG	-tris	0G	-tris	1d	-triſ
0D	a-	.	.	0d	a-
!	!	!LO:SIC:v:s=1F#	!	!	!
.	.	1Fny	a-	.	.
=124-	=124-	=124-	=124-	=124-	=124-
!	!	!LO:SIC:v:t=custos G	!	!	!
0.GG	-men	0.G	-men	0.d	-men
!	!	!LO:LB:g=original	!	!	!
=125-	=125-	=125-	=125-	=125-	=125-
1G	a-	1G	a-	1g	a-
1F	.	1A	.	1a	.
1G	.	1B-	.	1g	.
=126-	=126-	=126-	=126-	=126-	=126-
1.C	.	0c	men	0.g	-men
2D/	.	.	.	.	.
*	*	*	*ij	*	*
1E	.	1G	a-	.	.
!	!	!	!	!LO:LB:g=original	!
=127-	=127-	=127-	=127-	=127-	=127-
*	*	*	*	*	*ij
1BB-	.	1B-	.	0.f	a-
0F	.	0c	.	.	.
=128-	=128-	=128-	=128-	=128-	=128-
0.BB-	-men	0.B-	-men	0.f	-men
*	*	*	*Xij	*	*Xij
=129-	=129-	=129-	=129-	=129-	=129-
*	*ij	*	*ij	*	*ij
0B-	a-	1F	a-	1d	a-
.	.	1G	.	1e	.
1A	.	1A	.	1f	.
=130-	=130-	=130-	=130-	=130-	=130-
0G	-men	0B-	-men	0g	-men
*	*Xij	*	*Xij	*	*Xij
*	*ij	*	*ij	*	*
1G	a-	1G	a-	1g	a-
=131-	=131-	=131-	=131-	=131-	=131-
1D	.	1A	.	1f	.
!LO:SIC:v:s=1E-	!	!	!	!	!
1E	.	1G	.	1e-X	.
1F	.	1F	.	1c	.
=132-	=132-	=132-	=132-	=132-	=132-
1.BB-	-men	0.F	-men	0.d	-men
*	*Xij	*	*	*	*
2C/	.	.	.	.	.
1D	.	.	.	.	.
*	*	*	*Xij	*	*
=133-	=133-	=133-	=133-	=133-	=133-
*	*ij	*	*ij	*	*ij
!LO:SIC:v:s=1E-	!	!	!	!	!
1E	a-	1G	a-	1B-	a-
1C	.	1c	.	1e-X	.
1D	-men	1A	.	2d\	.
.	.	.	.	2c\	.
*	*Xij	*	*	*	*
!LO:LB:g=original	!	!	!	!	!
=134-	=134-	=134-	=134-	=134-	=134-
*	*ij	*	*	*	*
2GG/	a-	0B-	-men	0d	-men
2AA/	.	.	.	.	.
2BB-/	.	.	.	.	.
2C/	.	.	.	.	.
*	*	*	*Xij	*	*Xij
*	*	*	*ij	*	*ij
1D	.	1A	a-	1d	a-
=135-	=135-	=135-	=135-	=135-	=135-
!	!	!LO:N:acc=#	!	!	!
0.GG	men	0.Bn	-men	0.d	-men
*	*Xij	*	*Xij	*	*Xij
=136-	=136-	=136-	=136-	=136-	=136-
*M2/1	*	*M2/1	*	*M2/1	*
*met(C|)	*	*met(C|)	*	*met(C|)	*
2C/	a-	2G/	a-	2e-X\	a-
!LO:TX:t=P:problem:♯ above	!	!	!	!	!
!LO:N:acc=#	!	!	!	!	!
2BBni/	-men	2B-y\	.	2d\	men
*	*	*	*	*	*ij
1C	a-	1G	.	1e-X	a-
=137-	=137-	=137-	=137-	=137-	=137-
!	!	!LO:TX:a:t=P:w źródle fermaty bez kropek:problem	!	!	!
!	!	!	!	!LO:TX:a:t=P:w źródle fermata bez kropki:problem	!
0GG;;	-men	0G;;	-men	0dl;>	-men
*	*	*	*	*	*Xij
==	==	==	==	==	==
*-	*-	*-	*-	*-	*-
!!title: @{OTL};
!!!RDF**kern: > = above
!!!RDF**kern: < = below
!!!RDF**kern: | = vertical stroke
!!!RDF**kern: N = linked
!!!RDF**kern: i = editorial accidental
!!!RDF**kern: l = terminal long
!!!EED: Wojciech Jakubiak-Danek
!!!EST: 2021-07-08
!!!URL-scan: http://repozytorium.nifc.pl/skany/pl-kk-nut--i-10
!!!ONB-nifc: UWAGA: części Mszy: 1. Kyrie, 2. Et in terra, 3. Patrem, 4. Sanctus, 5. Benedictus, 6. Agnus Dei. A (0038-0041), T (0087-0090), B (0136-0139)
!!!ENC: Krzysztof Stępień
!!!END: 2021-06-28
